svgs/light/person-dress-simple.svg

<svg xmlns="http://www.w3.org/2000/svg" viewBox="0 0 256 512"><!-- Font Awesome Pro 6.0.0-alpha2 by @fontawesome - https://fontawesome.com License - https://fontawesome.com/license (Commercial License) --><path d="M255.376 363.604L210.466 206.418C202.615 178.943 177.503 160 148.928 160H107.075C78.5 160 53.388 178.942 45.537 206.417L0.625 363.604C-2.295 373.825 5.38 384 16.01 384H64V496C64 504.844 71.157 512 80 512S96 504.844 96 496V384H160V496C160 504.844 167.157 512 176 512S192 504.844 192 496V384H239.991C250.621 384 258.296 373.825 255.376 363.604ZM37.221 352L76.305 215.209C80.23 201.471 92.786 192 107.074 192H148.927C163.215 192 175.771 201.471 179.696 215.209L218.78 352H37.221ZM128 128C163.375 128 192 99.375 192 64S163.375 0 128 0S64 28.625 64 64S92.625 128 128 128ZM128 32C145.645 32 160 46.355 160 64S145.645 96 128 96S96 81.645 96 64S110.356 32 128 32Z"/></svg>

<svg xmlns="http://www.w3.org/2000/svg" viewBox="0 0 256 512"><!--! Font Awesome Pro 6.3.0 by @fontawesome - https://fontawesome.com License - https://fontawesome.com/license (Commercial License) Copyright 2023 Fonticons, Inc. --><path d="M255.4 363.6l-44.91-157.2C202.6 178.9 177.5 160 148.9 160H107.1C78.5 160 53.39 178.9 45.54 206.4l-44.91 157.2C-2.295 373.8 5.379 384 16.01 384h47.99L64 496C64 504.8 71.16 512 80 512S96 504.8 96 496V384h64v112c0 8.844 7.156 16 16 16s16-7.156 16-16l.0002-112h47.99C250.6 384 258.3 373.8 255.4 363.6zM37.22 352l39.08-136.8C80.23 201.5 92.79 192 107.1 192h41.85c14.29 0 26.84 9.471 30.77 23.21L218.8 352H37.22zM128 128c35.38 0 64-28.62 64-64S163.4 0 128 0S63.1 28.62 63.1 64S92.63 128 128 128zM128 32c17.64 0 32 14.36 32 32s-14.36 32-32 32S96 81.64 96 64S110.4 32 128 32z"/></svg>
